static/images/footer/instagram.svg

<svg width="36" height="36" viewBox="0 0 36 36" fill="none" xmlns="http://www.w3.org/2000/svg">
<path d="M11.7 3H24.3C29.1 3 33 6.9 33 11.7V24.3C33 26.6074 32.0834 28.8203 30.4518 30.4518C28.8203 32.0834 26.6074 33 24.3 33H11.7C6.9 33 3 29.1 3 24.3V11.7C3 9.39262 3.9166 7.17974 5.54817 5.54817C7.17974 3.9166 9.39262 3 11.7 3ZM11.4 6C9.96783 6 8.59432 6.56893 7.58162 7.58162C6.56893 8.59432 6 9.96783 6 11.4V24.6C6 27.585 8.415 30 11.4 30H24.6C26.0322 30 27.4057 29.4311 28.4184 28.4184C29.4311 27.4057 30 26.0322 30 24.6V11.4C30 8.415 27.585 6 24.6 6H11.4ZM25.875 8.25C26.3723 8.25 26.8492 8.44754 27.2008 8.79917C27.5525 9.15081 27.75 9.62772 27.75 10.125C27.75 10.6223 27.5525 11.0992 27.2008 11.4508C26.8492 11.8025 26.3723 12 25.875 12C25.3777 12 24.9008 11.8025 24.5492 11.4508C24.1975 11.0992 24 10.6223 24 10.125C24 9.62772 24.1975 9.15081 24.5492 8.79917C24.9008 8.44754 25.3777 8.25 25.875 8.25ZM18 10.5C19.9891 10.5 21.8968 11.2902 23.3033 12.6967C24.7098 14.1032 25.5 16.0109 25.5 18C25.5 19.9891 24.7098 21.8968 23.3033 23.3033C21.8968 24.7098 19.9891 25.5 18 25.5C16.0109 25.5 14.1032 24.7098 12.6967 23.3033C11.2902 21.8968 10.5 19.9891 10.5 18C10.5 16.0109 11.2902 14.1032 12.6967 12.6967C14.1032 11.2902 16.0109 10.5 18 10.5ZM18 13.5C16.8065 13.5 15.6619 13.9741 14.818 14.818C13.9741 15.6619 13.5 16.8065 13.5 18C13.5 19.1935 13.9741 20.3381 14.818 21.182C15.6619 22.0259 16.8065 22.5 18 22.5C19.1935 22.5 20.3381 22.0259 21.182 21.182C22.0259 20.3381 22.5 19.1935 22.5 18C22.5 16.8065 22.0259 15.6619 21.182 14.818C20.3381 13.9741 19.1935 13.5 18 13.5Z" fill="white"/>
</svg>

<svg width="36" height="36" fill="none" xmlns="http://www.w3.org/2000/svg"><path d="M11.7 3h12.6c4.8 0 8.7 3.9 8.7 8.7v12.6a8.7 8.7 0 01-8.7 8.7H11.7C6.9 33 3 29.1 3 24.3V11.7A8.7 8.7 0 0111.7 3zm-.3 3A5.4 5.4 0 006 11.4v13.2c0 2.985 2.415 5.4 5.4 5.4h13.2a5.4 5.4 0 005.4-5.4V11.4C30 8.415 27.585 6 24.6 6H11.4zm14.475 2.25a1.875 1.875 0 110 3.75 1.875 1.875 0 010-3.75zM18 10.5a7.5 7.5 0 110 15 7.5 7.5 0 010-15zm0 3a4.5 4.5 0 100 9 4.5 4.5 0 000-9z" fill="#fff"/></svg>
